!!!!SEGMENT: pl-sa--95-a-ii-35--008_anonim--triumpha-superne-dux.krn
!!!cenid: 17xx:1459
!!!COM: Anonim
!!!COM-rismID:
!!!CDT:
!!!CNT:
!!!OTL: Triumpha superne dux
!!!PDT:
!!!AGN:
!!!SMS-siglum: PL-SA
!!!SMS-shelfmark: 95/A II 35
!!!SMS-shelfwork: 008 W
!!!SMS-variant:
!!!SMS-altvar:
!!!NIFC-rismSourceID: 1001041195
!!!NIFC-islandoraID:
!!!URL-pdf-islandora:
!!!URL-scan: https://bc.bdsandomierz.pl/dlibra/publication/1376/edition/1344/content @EN{Scan on Cyfrowa Biblioteka Diecezjalna w Sandomierzu} @PL{Skany w portalu Cyfrowa Biblioteka Diecezjalna w Sandomierzu}
!!!ONB-nifc: 8vus
!!!AIN: 1 organ 2 violn 1 vox
!!!key: G
**kern	**fba	**kern	**dynam	**kern	**dynam	**kern	**text
*	*	*group1	*	*group1	*	*	*
*part4	*part4	*part3	*part3	*part2	*part2	*part1	*part1
*staff4	*	*staff3	*	*staff2	*	*staff1	*staff1
*>[A,B,A]	*	*>[A,B,A]	*>[A,B,A]	*>[A,B,A]	*>[A,B,A]	*>[A,B,A]	*>[A,B,A]
*>A	*	*>A	*>A	*>A	*>A	*>A	*>A
*I"Organo	*	*I"Violino 2do	*	*I"Violino 1mo.	*	*I"Vox Cantans Alternatè	*
*I'org	*	*I'vl 2	*	*I'vl 1	*	*I'V	*
*Iorgan	*	*Ivioln	*	*Ivioln	*	*Ivox	*
*ICklav	*	*ICstr	*	*ICstr	*	*ICvox	*
*clefF4	*	*clefG2	*	*clefG2	*	*clefC1	*
*k[f#]	*	*k[f#]	*	*k[f#]	*	*k[f#]	*
*G:	*	*G:	*	*G:	*	*G:	*
*M6/8	*	*M6/8	*	*M6/8	*	*M6/8	*
=1	=1	=1	=1	=1	=1	=1	=1
!LO:TX:a:t=Grave	!	!	!	!	!	!	!
!LO:TX:t=P:problem=przy kluczu F# FF#	!	!LO:TX:t=P:problem=przy kluczu ff# f#	!	!LO:TX:t=P:problem=przy kluczu ff# f#	!	!	!
4G\	.	16gg\LL	.	4g/	.	0.r	.
.	.	(32ff#\L	.	.	.	.	.
.	.	32ee\JJJ)	.	.	.	.	.
.	.	16dd\LL	.	.	.	.	.
.	.	16cc\	.	.	.	.	.
8r	.	16b\	.	8a/	.	.	.
.	.	16a\JJ	.	.	.	.	.
4G\	.	(16g\LL	.	4b/	.	.	.
.	.	16b\)	.	.	.	.	.
.	.	(16b\	.	.	.	.	.
.	.	16dd\)	.	.	.	.	.
8r	.	(16dd\	.	8r	.	.	.
.	.	16gg\JJ)	.	.	.	.	.
=2	=2	=2	=2	=2	=2	=2	=2
4D/	.	16ff#\LL	.	4dd\	.	.	.
.	.	32dd\L	.	.	.	.	.
.	.	32ee\J	.	.	.	.	.
.	.	16ff#\	.	.	.	.	.
.	.	16gg\	.	.	.	.	.
8r	.	16aa\	.	8r	.	.	.
.	.	16dd\JJ	.	.	.	.	.
8D\L	.	16cc\LL	.	8a/L	.	.	.
.	.	16a\J	.	.	.	.	.
8G\J	.	8b\J	.	8g/J	.	.	.
8r	.	8r	.	8r	.	.	.
=3	=3	=3	=3	=3	=3	=3	=3
4c\	.	16ee\LL	.	4cc\	.	.	.
.	.	16cc\	.	.	.	.	.
.	.	16cc\	.	.	.	.	.
.	.	16g\	.	.	.	.	.
8r	.	16g\	.	8r	.	.	.
.	.	16e\JJ	.	.	.	.	.
!LO:N:vis=2r	!	!	!	!	!	!	!
4.r	.	16c/LL	.	4c/	.	.	.
.	.	32c/L	.	.	.	.	.
.	.	32d/JJJ	.	.	.	.	.
.	.	16e/LL	.	.	.	.	.
.	.	16g/	.	.	.	.	.
.	.	16cc/	.	8r	.	.	.
.	.	16ee/JJ	.	.	.	.	.
!	!	!LO:LB:g=original	!	!	!	!	!
=4	=4	=4	=4	=4	=4	=4	=4
4G\	.	(16dd/LL	.	4b/	.	.	.
.	.	16b/)	.	.	.	.	.
.	.	(16b/	.	.	.	.	.
.	.	16g/)	.	.	.	.	.
8r	.	(16g/	.	8r	.	.	.
.	.	16d/JJ)	.	.	.	.	.
!LO:N:vis=2r	!	!	!	!	!	!	!
4.r	.	16B/LL	.	4B/	.	.	.
.	.	32B/L	.	.	.	.	.
.	.	32c/JJJ	.	.	.	.	.
.	.	16d/LL	.	.	.	.	.
.	.	16g/	.	.	.	.	.
.	.	16b/	.	8r	.	.	.
.	.	16dd/JJ	.	.	.	.	.
=5	=5	=5	=5	=5	=5	=5	=5
4A\	6	16cc/LL	.	4a/	.	0.r	.
.	.	16a/	.	.	.	.	.
.	.	16a/	.	.	.	.	.
.	.	16f#/	.	.	.	.	.
8r	.	16f#/	.	8r	.	.	.
.	.	16d/JJ	.	.	.	.	.
8D/L	.	16d/LL	.	4d/	.	.	.
.	.	32d/L	.	.	.	.	.
.	.	32e/JJJ	.	.	.	.	.
8r	.	16f#/LL	.	.	.	.	.
.	.	16a/	.	.	.	.	.
8D/J	7_ 5_	16a/	.	8r	.	.	.
.	.	16cc/JJ	.	.	.	.	.
=6	=6	=6	=6	=6	=6	=6	=6
8D\L	.	16cc\LL	.	8f#/L	.	.	.
.	x	16a\J	.	.	.	.	.
8G\J	.	8b\J	.	8g/J	.	.	.
8r	.	8r	.	8r	.	.	.
4G\	.	32dd\LLL	.	8g/	.	.	.
.	.	32cc\	.	.	.	.	.
.	.	32b\	.	.	.	.	.
.	.	32a\JJJ	.	.	.	.	.
.	.	16g/LL	.	8r	.	.	.
.	.	16fn/	.	.	.	.	.
8r	.	16f/	.	8r	.	.	.
.	.	16f/JJ	.	.	.	.	.
=7	=7	=7	=7	=7	=7	=7	=7
8G\L	.	8fn/L	.	8d/L	.	.	.
8C\J	.	8e/J	.	8c/J	.	.	.
8r	.	8r	.	8r	.	.	.
!	!	!LO:LB:g=original	!	!LO:N:vis=2r	!	!	!
4c\	.	(32ee\LLL	.	4.r	.	.	.
.	.	32dd\	.	.	.	.	.
.	.	32cc\	.	.	.	.	.
.	.	32b\JJJ)	.	.	.	.	.
.	.	16a/LL	.	.	.	.	.
.	.	16g/	.	.	.	.	.
8r	.	16g/	.	.	.	.	.
.	.	16g/JJ	.	.	.	.	.
!LO:LB:g=original	!	!	!	!	!	!	!
=8	=8	=8	=8	=8	=8	=8	=8
8E\L	3	8g/L	.	8e/L	.	.	.
8D\J	.	8f#X/J	.	8d/J	.	.	.
8r	.	8r	.	8r	.	.	.
4D/	.	16d/LL	.	4d/	.	.	.
.	.	16f#/	.	.	.	.	.
.	.	16f#/	.	.	.	.	.
.	.	16a/J	.	.	.	.	.
8r	.	8a/J	.	8r	.	.	.
!	!	!	!	!LO:LB:g=original	!	!	!
=9	=9	=9	=9	=9	=9	=9	=9
4D/	5	16cc\LL	.	8cc\L	.	0.r	.
.	.	32a\L	.	.	.	.	.
.	.	32b\JJ	.	.	.	.	.
.	.	8cc\J	.	8a\J	.	.	.
8r	.	8r	.	8r	.	.	.
!LO:N:vis=2r	!	!	!	!	!	!	!
4.r	.	16cc\LL	.	16cc\LL	.	.	.
.	.	16ff#\	.	16ff#\	.	.	.
.	.	16ff#\	.	16ff#\	.	.	.
.	.	16aa\J	.	16aa\J	.	.	.
.	.	8aa\J	.	8aa\J	.	.	.
=10	=10	=10	=10	=10	=10	=10	=10
!LO:N:vis=2r	!	!	!	!	!	!	!
4r	.	32aa\LLL	.	4dd\	.	.	.
.	.	32gg\	.	.	.	.	.
.	.	32ff#\	.	.	.	.	.
.	.	32ee\JJJ	.	.	.	.	.
.	.	16dd\LL	.	.	.	.	.
.	.	16cc\	.	.	.	.	.
8D\L	7 5	16cc\	.	8cc\	.	.	.
.	.	16cc\JJ	.	.	.	.	.
8r	.	8cc\L	.	8a/L	.	.	.
8G\J	.	8b\J	.	8g/J	.	.	.
8r	.	8r	.	8r	.	.	.
=11	=11	=11	=11	=11	=11	=11	=11
!LO:TX:t=P:problem=mixed beam	!	!	!	!	!	!	!
8C\L	.	16g/LL	.	16g/LL	.	.	.
.	.	16e/JJ	.	16e/JJ	.	.	.
8D\	4	8.f#/L	.	8.f#/L	.	.	.
8DD/J	3	.	.	.	.	.	.
.	.	16g/Jk	.	16g/Jk	.	.	.
4GG/	.	4g/	.	4g/	.	.	.
8r	.	8r	.	8r	.	.	.
!	!	!LO:LB:g=original	!	!	!	!	!
=12	=12	=12	=12	=12	=12	=12	=12
!	!	!	!LO:DY:a	!	!LO:DY:a	!	!
4G\	.	(32dd\LLL	p	4g/	p	.	.
.	.	32cc\	.	.	.	.	.
.	.	32b\	.	.	.	.	.
.	.	32a\JJJ)	.	.	.	.	.
.	.	16g/LL	.	.	.	.	.
.	.	16fn/	.	.	.	.	.
8r	.	16f/	.	8r	.	.	.
.	.	16f/JJ	.	.	.	.	.
8G\L	-7 5	8f/L	.	8d/L	.	.	.
8C\J	.	8e/J	.	8c/J	.	.	.
8r	.	8r	.	8r	.	.	.
=13	=13	=13	=13	=13	=13	=13	=13
8C/	.	(32ee\LLL	.	4a/	.	0.r	.
.	.	32dd\	.	.	.	.	.
.	.	32cc\	.	.	.	.	.
.	.	32b\JJJ)	.	.	.	.	.
8r	.	16a/LL	.	.	.	.	.
.	.	16g/	.	.	.	.	.
8r	.	16g/	.	8r	.	.	.
.	.	16g/JJ	.	.	.	.	.
8D\L	4 2	8g/L	.	8e/L	.	.	.
8D\J	#	8f#/J	.	8d/J	.	.	.
8r	.	8r	.	8r	.	.	.
=14	=14	=14	=14	=14	=14	=14	=14
8D/	.	16d/LL	.	16d/LL	.	.	.
.	.	16f#/	.	16f#/	.	.	.
8r	.	16f#/	.	16f#/	.	.	.
.	.	16a/	.	16a/J	.	.	.
8r	.	16a/	.	8a/J	.	.	.
!	!	!LO:N:vis=8	!	!	!	!	!
.	.	16cc/JJ	.	.	.	.	.
8D/L	7 5	16cc/LL	.	4a/	.	.	.
.	.	32a/L	.	.	.	.	.
.	.	32b/JJ	.	.	.	.	.
8D/J	.	8cc/J	.	.	.	.	.
8r	.	8r	.	8r	.	.	.
!LO:LB:g=original	!	!	!	!	!	!	!
=15	=15	=15	=15	=15	=15	=15	=15
4D/	.	16cc\LL	.	16cc\LL	.	.	.
.	.	16ff#\	.	16ff#\	.	.	.
.	.	16ff#\	.	16ff#\	.	.	.
.	.	16aa\J	.	16aa\J	.	.	.
8r	.	8aa\J	.	8aa\J	.	.	.
!LO:N:vis=2	!	!	!	!LO:LB:g=original	!	!	!
4.r	.	32aa\LLL	.	4dd\	.	.	.
.	.	32gg\	.	.	.	.	.
.	.	32ff#\	.	.	.	.	.
.	.	32ee\JJJ	.	.	.	.	.
.	.	16dd\LL	.	.	.	.	.
.	.	16cc\	.	.	.	.	.
.	.	16cc\	.	8cc\	.	.	.
.	.	16cc\JJ	.	.	.	.	.
!	!	!LO:LB:g=original	!	!	!	!	!
=16	=16	=16	=16	=16	=16	=16	=16
8D\L	7 5	8cc\L	.	8a/L	.	.	.
8G\J	.	8b\J	.	8g/J	.	.	.
8r	.	8r	.	8r	.	.	.
8C/L	.	16g/LL	.	8e/L	.	.	.
.	.	16e/JJ	.	.	.	.	.
8D/	.	8.f#/L	.	8d/	.	.	.
8DD/J	.	.	.	8d/J	.	.	.
.	.	16g/Jk	.	.	.	.	.
=17	=17	=17	=17	=17	=17	=17	=17
4GG/	.	8g/	.	8B/	.	8r	.
.	.	8r	.	8r	.	8r	.
!	!	!	!LO:DY:a	!	!LO:DY:a	!	!
8r	.	16dd\LL	p	8f#/L	p	16dd\LL	Tri-
.	.	16cc\	.	.	.	16cc\JJ	.
!LO:N:vis=2r	!	!	!	!	!	!	!
4.r	.	16b\	.	8g/J	.	16b\LL	-um-
.	.	16a\JJ	.	.	.	16a\JJ	.
.	.	8g/L	.	8r	.	8g/	-pha
.	.	8f#/J	.	8d/	.	8f#/	Su-
=18	=18	=18	=18	=18	=18	=18	=18
0.r	.	8g/L	.	4B/	.	8g/	-per-
.	.	8d/J	.	.	.	8d/	-ne
.	.	16dd\LL	.	8f#/	.	16dd\LL	Dux
.	.	16cc\	.	.	.	16cc\JJ	.
.	.	16b\	.	4g/	.	16b\LL	mag-
.	.	16a\JJ	.	.	.	16a\JJ	.
!	!	!	!	!	!	!LO:SIC:l:s=nae	!
.	.	8g/L	.	.	.	8g/	-ne
.	.	8f#/J	.	8d/	.	8f#/	mi-
=19	=19	=19	=19	=19	=19	=19	=19
.	.	16g/LL	.	4B/	.	16g/	-li-
.	.	16d/J	.	.	.	16d/	-ti-
.	.	8d/J	.	.	.	8d/	-ae
.	.	8r	.	8r	.	8r	.
.	.	16f#/LL	.	16d/LL	.	8a\	e-
.	.	16f#/	.	16d/	.	.	.
!	!	!	!	!	!	!LO:LB:g=original	!
.	.	16f#/	.	16d/	.	8a\	-xul-
.	.	16f#/	.	16d/	.	.	.
.	.	16g/	.	16g/	.	8b\	-ta
.	.	16g/JJ	.	16g/JJ	.	.	.
=20	=20	=20	=20	=20	=20	=20	=20
.	.	16a/LL	.	16a/LL	.	16cc\LL	.
.	.	16g/	.	16g/	.	16b\	.
.	.	16f#/	.	16f#/	.	16a\	.
.	.	16g/J	.	16g/J	.	16b\J	.
.	.	8a/J	.	8a/J	.	8cc\J	.
.	.	16a/LL	.	16a/LL	.	16cc\LL	.
.	.	16b/	.	16b/	.	16dd\	.
.	.	16a/	.	16a/	.	16cc\	.
.	.	16b/	.	16b/	.	16dd\	.
.	.	16a/	.	16a/	.	16cc\	.
.	.	16b/JJ	.	16b/JJ	.	16dd\JJ	.
!	!	!LO:LB:g=original	!	!	!	!	!
=21	=21	=21	=21	=21	=21	=21	=21
.	.	8g/L	.	8g/L	.	16b\LL	.
.	.	.	.	.	.	16a\	.
!	!	!	!	!LO:SIC:v:s=8e	!	!	!
.	.	8e/	.	8d/	.	16g\	.
.	.	.	.	.	.	16a\J	.
.	.	8g/J	.	8g/J	.	8b\J	.
.	.	16g/LL	.	16g/LL	.	16b\LL	.
.	.	16a/	.	16a/	.	16cc\	.
.	.	16g/	.	16g/	.	16b\	.
.	.	16a/	.	16a/	.	16cc\	.
.	.	16g/	.	16g/	.	16b\	.
.	.	16a/JJ	.	16a/JJ	.	16cc\JJ	ae-
=22	=22	=22	=22	=22	=22	=22	=22
0.r	.	16f#/LL	.	16d/LL	.	8a\	-ter-
.	.	16f#/	.	16d/	.	.	.
.	.	16f#/	.	16d/	.	8d/	-nae
.	.	16f#/J	.	16d/	.	.	.
.	.	8f#/J	.	16d/	.	8a\	Sa-
.	.	.	.	16d/JJ	.	.	.
.	.	16g/LL	.	16g/LL	.	16b\LL	-tel-
.	.	16a/	.	16a/	.	16cc\JJ	.
.	.	16g/	.	16g/	.	16b\LL	-les
.	.	16a/	.	16a/	.	16cc\JJ	.
.	.	16g/	.	16g/	.	16b\LL	Jus-
.	.	16a/JJ	.	16a/JJ	.	16cc\JJ	.
=23	=23	=23	=23	=23	=23	=23	=23
.	.	8f#/L	.	8f#/L	.	16a\	-ti-
.	.	.	.	.	.	16d/	-ti-
.	.	8d/J	.	8d/	.	8d/	-ae
!	!	!	!	!	!	!LO:LB:g=original	!
.	.	16dd\LL	.	8f#/J	.	16dd\LL	tri-
.	.	16cc\	.	.	.	16cc\JJ	.
.	.	16b\	.	8g/L	.	16b\LL	-um-
.	.	16a\JJ	.	.	.	16a\JJ	.
.	.	8g/L	.	8B/	.	8g/	-pha
.	.	8f#/J	.	8d/J	.	8f#/	Su-
=24	=24	=24	=24	=24	=24	=24	=24
.	.	8g/L	.	4B/	.	8g/	-per-
!	!	!	!	!	!	!LO:SIC:l:s=ne	!
.	.	8d/J	.	.	.	8d/	-nae
.	.	16dd\LL	.	8d/	.	16dd\LL	Dux
.	.	16cc\	.	.	.	16cc\JJ	.
.	.	16b\	.	8g/L	.	16b\LL	mag-
.	.	16a\JJ	.	.	.	16a\JJ	.
.	.	8g/L	.	8B/	.	8g/	-nae
.	.	8f#/J	.	8d/J	.	8f#/	mi-
=25	=25	=25	=25	=25	=25	=25	=25
.	.	16g/LL	.	4B/	.	16g/	-li-
.	.	16d/J	.	.	.	16d/	-ti-
.	.	8d/J	.	.	.	8d/	-ae
.	.	8r	.	8r	.	8r	.
!	!	!LO:LB:g=original	!	!	!	!	!
.	.	16f#/LL	.	16d/LL	.	8a\	quo
.	.	16f#/	.	16d/	.	.	.
.	.	16f#/	.	16d/	.	8a\	vic-
.	.	16f#/	.	16d/	.	.	.
.	.	16g/	.	16g/	.	8b\	-tus
.	.	16g/JJ	.	16g/JJ	.	.	.
!	!	!	!	!LO:LB:g=original	!	!	!
=26	=26	=26	=26	=26	=26	=26	=26
0.r	.	8a/L	.	8a/L	.	8cc\	re-
.	.	16g/L	.	16g/L	.	16b\LL	-bel-
.	.	16f#/J	.	16f#/J	.	16a\JJ	.
.	.	8g/J	.	8g/J	.	8b\	-lis
!	!	!	!	!	!	!LO:LB:g=original	!
.	.	16f#/LL	.	16d/LL	.	8a\	in-
.	.	16f#/	.	16d/	.	.	.
.	.	16f#/	.	16d/	.	8a\	-fer-
.	.	16f#/	.	16d/	.	.	.
.	.	16g/	.	16g/	.	8b\	-ni
.	.	16g/JJ	.	16g/JJ	.	.	.
=27	=27	=27	=27	=27	=27	=27	=27
.	.	8a/L	.	8a/L	.	8cc\	pro-
.	.	16g/L	.	16g/L	.	16b\LL	-cel-
.	.	16f#/J	.	16f#/JJ	.	16a\JJ	.
.	.	8g/J	.	8g/	.	8b\	-lis
.	.	16B/LL	.	16B/LL	.	16gg\LL	in-
.	.	16c/JJ	.	16c/JJ	.	16ee\JJ	.
.	.	8d/L	.	8d/L	.	8.ff#\L	-vol-
.	.	8d/J	.	8d/J	.	.	.
.	.	.	.	.	.	16ff#\Jk	-vi-
=28	=28	=28	=28	=28	=28	=28	=28
.	.	16G/LL	.	4B/	.	4gg\	-tur
.	.	16A/	.	.	.	.	.
.	.	16B/	.	.	.	.	.
.	.	16A/J	.	.	.	.	.
.	.	8G/J	.	8r	.	8r	.
.	.	16f#/LL	.	16d/LL	.	8a\	quo
.	.	16f#/	.	16d/	.	.	.
.	.	16f#/	.	16d/	.	8a\	vic-
.	.	16f#/	.	16d/	.	.	.
.	.	16g/	.	16g/	.	8b\	-tus
.	.	16g/JJ	.	16g/JJ	.	.	.
=29	=29	=29	=29	=29	=29	=29	=29
.	.	8a/L	.	8a/L	.	8cc\	re-
.	.	16g/L	.	16g/L	.	16b\LL	-bel-
.	.	16f#/J	.	16f#/J	.	16a\JJ	.
.	.	8g/J	.	8g/J	.	8b\	-lis
.	.	16f#/LL	.	16d/LL	.	8a\	in-
.	.	16f#/	.	16d/	.	.	.
.	.	16f#/	.	16d/	.	8a\	-fer-
.	.	16f#/	.	16d/	.	.	.
.	.	16g/	.	16g/	.	8b\	-ni
.	.	16g/JJ	.	16g/JJ	.	.	.
!	!	!	!	!	!	!LO:LB:g=original	!
=30	=30	=30	=30	=30	=30	=30	=30
2.r	.	8a/L	.	8a/L	.	8cc\	pro-
.	.	16g/L	.	16g/L	.	16b\LL	-cel-
.	.	16f#/J	.	16f#/J	.	16a\JJ	.
.	.	8g/J	.	8g/J	.	8b\	-lis
!	!	!LO:LB:g=original	!	!LO:LB:g=original	!	!	!
.	.	8c/L	.	8c/L	.	16g/LL	in-
.	.	.	.	.	.	16e/JJ	.
.	.	8d/	.	8d/	.	8.f#/	-vol-
.	.	8d/J	.	8d/J	.	.	.
.	.	.	.	.	.	16f#/	-vi-
=31	=31	=31	=31	=31	=31	=31	=31
!	!	!	!LO:DY:a	!	!	!	!
4G\	.	16gg\LL	f	4g/	.	4g/	-tur
.	.	32ff#\L	.	.	.	.	.
.	.	32ee\JJJ	.	.	.	.	.
.	.	16dd\LL	.	.	.	.	.
.	.	16cc\	.	.	.	.	.
8r	.	16b\	.	8a/	.	8r	.
.	.	16a\JJ	.	.	.	.	.
!	!	!	!	!	!	!LO:N:vis=2r	!
4G\	.	(16g/LL	.	4b/	.	4.r	.
.	.	16b/)	.	.	.	.	.
.	.	(16b/	.	.	.	.	.
.	.	16dd/JJ)	.	.	.	.	.
8r	.	(16dd\LL	.	8r	.	.	.
.	.	16gg\JJ)	.	.	.	.	.
=32	=32	=32	=32	=32	=32	=32	=32
4D/	.	16ff#\LL	.	4dd\	.	0.r	.
.	.	32dd\L	.	.	.	.	.
.	.	32ee\JJJ	.	.	.	.	.
.	.	16ff#\LL	.	.	.	.	.
.	.	16gg\	.	.	.	.	.
8r	.	16aa\	.	8r	.	.	.
.	.	16dd\JJ	.	.	.	.	.
8D\L	7 5	16cc\LL	.	8a/L	.	.	.
.	.	16a\J	.	.	.	.	.
8G\J	.	8b\J	.	8g/J	.	.	.
*	*	*custos:ee	*	*	*	*	*
8r	.	8r	.	8r	.	.	.
!	!	!LO:LB:g=original	!	!	!	!	!
=33	=33	=33	=33	=33	=33	=33	=33
4c\	.	(16ee\LL	.	4cc\	.	.	.
.	.	16cc\)	.	.	.	.	.
.	.	(16cc\	.	.	.	.	.
.	.	16g\)	.	.	.	.	.
8r	.	(16g\	.	8r	.	.	.
.	.	16e\JJ)	.	.	.	.	.
4C/	.	16c/LL	.	4c/	.	.	.
.	.	32c/L	.	.	.	.	.
.	.	32d/JJJ	.	.	.	.	.
.	.	16e/LL	.	.	.	.	.
.	.	16g/	.	.	.	.	.
8r	.	16cc/	.	8r	.	.	.
.	.	16ee/JJ	.	.	.	.	.
=34	=34	=34	=34	=34	=34	=34	=34
4G\	.	(16dd/LL	.	4b/	.	.	.
.	.	16b/)	.	.	.	.	.
.	.	(16b/	.	.	.	.	.
.	.	16g/)	.	.	.	.	.
8r	.	(16g/	.	8r	.	.	.
.	.	16d/JJ)	.	.	.	.	.
4G\	.	16G/LL	.	4B/	.	.	.
.	.	32G/L	.	.	.	.	.
.	.	32A/JJJ	.	.	.	.	.
.	.	16B/LL	.	.	.	.	.
.	.	16d/	.	.	.	.	.
8r	.	16b/	.	8r	.	.	.
.	.	16dd/JJ	.	.	.	.	.
=35	=35	=35	=35	=35	=35	=35	=35
4A\	6	(16cc\LL	.	4f#/	.	.	.
.	.	16a\JJ)	.	.	.	.	.
.	.	(16a/LL	.	.	.	.	.
.	.	16f#/)	.	.	.	.	.
8r	.	(16f#/	.	8r	.	.	.
.	.	16d/JJ)	.	.	.	.	.
!LO:LB:g=original	!	!	!	!	!	!	!
4D/	7 5	16d/LL	.	4d/	.	.	.
.	.	32d/L	.	.	.	.	.
.	.	32e/JJJ	.	.	.	.	.
.	.	(16f#/LL	.	.	.	.	.
.	.	16a/)	.	.	.	.	.
8r	.	(16a/	.	8f#/	.	.	.
.	.	16cc/JJ)	.	.	.	.	.
!	!	!LO:LB:g=original	!	!	!	!	!
=36	=36	=36	=36	=36	=36	=36	=36
8D\L	7 5	16cc\LL	.	8f#/L	.	0.r	.
.	.	16a\J	.	.	.	.	.
8G\J	.	8b\J	.	8g/J	.	.	.
8r	.	8r	.	8r	.	.	.
4G\	.	32dd\LLL	.	4g/	.	.	.
.	.	32cc\	.	.	.	.	.
.	.	32b\	.	.	.	.	.
.	.	32a\JJJ	.	.	.	.	.
.	.	16g/LL	.	.	.	.	.
!	!	!LO:N:acc=-	!	!	!	!	!
.	.	16fn/	.	.	.	.	.
8r	.	16f/	.	8r	.	.	.
.	.	16f/JJ	.	.	.	.	.
=37	=37	=37	=37	=37	=37	=37	=37
!	!	!LO:SIC:v:s=8fn/L	!	!	!	!	!
8G\L	-7 5	8f#/L	.	8d/L	.	.	.
8C\J	.	8e/J	.	8c/J	.	.	.
8r	.	8r	.	8r	.	.	.
4c\	.	32ee\LLL	.	4a/	.	.	.
.	.	32dd\	.	.	.	.	.
.	.	32cc\	.	.	.	.	.
.	.	32b\JJJ	.	.	.	.	.
.	.	16a/LL	.	.	.	.	.
.	.	16g/	.	.	.	.	.
8r	.	16g/	.	8r	.	.	.
.	.	16g/JJ	.	.	.	.	.
!	!	!	!	!LO:LB:g=original	!	!	!
=38	=38	=38	=38	=38	=38	=38	=38
8D/L	4 2	8g/L	.	8e/L	.	.	.
8D/J	3	8f#/J	.	8d/J	.	.	.
8r	.	8r	.	8r	.	.	.
4D/	.	16d/LL	.	4d/	.	.	.
.	.	16f#/	.	.	.	.	.
.	.	16f#/	.	.	.	.	.
.	.	16a/J	.	.	.	.	.
8r	.	8a/J	.	8f#/	.	.	.
=39	=39	=39	=39	=39	=39	=39	=39
4D/	7 5	16cc\LL	.	8cc\L	.	.	.
.	.	32a\L	.	.	.	.	.
.	.	32b\JJ	.	.	.	.	.
.	.	8cc\J	.	8a\J	.	.	.
8r	.	8r	.	8r	.	.	.
8D\L	.	16cc\LL	.	4cc\	.	.	.
.	.	16ff#\	.	.	.	.	.
8E\	.	16ff#\	.	.	.	.	.
.	.	16aa\JJ	.	.	.	.	.
!	!	!LO:N:vis=4	!	!	!	!	!
8F#\J	.	8aa\	.	8r	.	.	.
!	!	!LO:LB:g=original	!	!	!	!	!
=40	=40	=40	=40	=40	=40	=40	=40
4D/	.	32aa\LLL	.	8cc\L	.	0.r	.
.	.	32gg\	.	.	.	.	.
.	.	32ff#\	.	.	.	.	.
.	.	32ee\JJJ	.	.	.	.	.
.	.	16dd\LL	.	8r	.	.	.
.	.	16cc\	.	.	.	.	.
8r	.	16cc\	.	8a\J	.	.	.
.	.	16cc\JJ	.	.	.	.	.
8D\L	7 5	8cc\L	.	8a/L	.	.	.
8G\J	.	8b\J	.	8g/J	.	.	.
8r	.	8r	.	8r	.	.	.
=41	=41	=41	=41	=41	=41	=41	=41
8C/L	.	16g/LL	.	8e/L	.	.	.
.	.	16e/JJ	.	.	.	.	.
8D/	.	8.f#/L	.	8.f#/	.	.	.
8DD/J	.	.	.	.	.	.	.
!	!	!LO:SIC:v:s=16g/Jk	!	!	!	!	!
.	.	16f#/Jk	.	16g/Jk	.	.	.
4GG/	.	4g/	.	4g/	.	.	.
8r	.	8r	.	8r	.	.	.
=42	=42	=42	=42	=42	=42	=42	=42
!	!	!	!LO:DY:a	!	!	!	!
4G\	-7 5	(32dd\LLL	p	4g/	.	.	.
.	.	32cc\	.	.	.	.	.
.	.	32b\	.	.	.	.	.
.	.	32a\JJJ)	.	.	.	.	.
.	.	16g/LL	.	.	.	.	.
.	.	16fn/	.	.	.	.	.
8r	.	16f/	.	8r	.	.	.
.	.	16f/JJ	.	.	.	.	.
8G\L	.	8f/L	.	8d/L	.	.	.
8C\J	.	8e/J	.	8c/J	.	.	.
8r	.	8r	.	8r	.	.	.
!LO:LB:g=original	!	!	!	!	!	!	!
=43	=43	=43	=43	=43	=43	=43	=43
4c\	.	(32ee\LLL	.	8a/L	.	.	.
.	.	32dd\	.	.	.	.	.
.	.	32cc\	.	.	.	.	.
.	.	32b\JJJ)	.	.	.	.	.
.	.	16a/LL	.	8r	.	.	.
.	.	16g/	.	.	.	.	.
8r	.	16g/	.	8g/J	.	.	.
.	.	16g/JJ	.	.	.	.	.
8D/L	4 2	8g/L	.	8e/L	.	.	.
8D/J	3	8f#/J	.	8d/J	.	.	.
8r	.	8r	.	8r	.	.	.
!	!	!LO:LB:g=original	!	!	!	!	!
=44	=44	=44	=44	=44	=44	=44	=44
4D/	.	16d/LL	.	4d/	.	1.r	.
.	.	16f#/	.	.	.	.	.
.	.	16f#/	.	.	.	.	.
.	.	16a/J	.	.	.	.	.
8E\	.	8a/J	.	8r	.	.	.
8F#\L	.	16cc\LL	.	8a/L	.	.	.
.	.	32a\L	.	.	.	.	.
.	.	32b\JJ	.	.	.	.	.
8D\J	7 5	8cc\J	.	8a/J	.	.	.
8r	.	8r	.	8r	.	.	.
!	!	!	!	!LO:LB:g=original	!	!	!
=45	=45	=45	=45	=45	=45	=45	=45
4D/	.	16cc\LL	.	16cc\LL	.	.	.
.	.	16ff#\	.	16ff#\	.	.	.
.	.	16ff#\	.	16ff#\	.	.	.
.	.	16aa\J	.	16aa\J	.	.	.
8r	.	8aa\J	.	8aa\J	.	.	.
8r	.	32aa\LLL	.	8dd\L	.	.	.
.	.	32gg\	.	.	.	.	.
.	.	32ff#\	.	.	.	.	.
.	.	32ee\JJJ	.	.	.	.	.
8r	.	16dd\LL	.	8r	.	.	.
.	.	16cc\	.	.	.	.	.
8D/	7 5	16cc\	.	8cc\J	.	.	.
.	.	16cc\JJ	.	.	.	.	.
=46	=46	=46	=46	=46	=46	=46	=46
8D\L	.	8cc\L	.	8a/L	.	2.r	.
8G\J	.	8b\J	.	8g/J	.	.	.
8r	.	8r	.	8r	.	.	.
8C/L	.	16g/LL	.	8e/L	.	.	.
.	.	16e/JJ	.	.	.	.	.
8D/	.	8.f#/L	.	8.d/	.	.	.
8DD/J	.	.	.	.	.	.	.
.	.	16f#/Jk	.	16d/Jk	.	.	.
=47||	=47||	=47||	=47||	=47||	=47||	=47||	=47||
!	!	!LO:TX:t=Finis	!	!	!	!	!
4GG/	.	8g;</	.	4B;/	.	8r	.
*>B	*	*>B	*>B	*>B	*>B	*>B	*>B
.	.	8r	.	.	.	8r	.
8r	.	8b/	.	8r	.	8b\	Nunc
!LO:N:vis=2r	!	!	!	!LO:N:vis=2	!	!	!
4.r	.	8b\L	.	4.r	.	8b\	ju-
.	.	8b\	.	.	.	8b\	-va
.	.	16cc#X\L	.	.	.	16cc#X\LL	pug-
.	.	16dd#X\JJ	.	.	.	16dd#X\JJ	.
=48	=48	=48	=48	=48	=48	=48	=48
0.r	.	8ee\L	.	0.r	.	16ee\LL	-nan-
.	.	.	.	.	.	16b\JJ	.
.	.	8b\J	.	.	.	8b\	-tes
.	.	16b/LL	.	.	.	16b\	rur-
.	.	16a/JJ	.	.	.	16a\	-sus
!	!	!LO:LB:g=original	!	!	!	!LO:LB:g=original	!
.	.	4g/	.	.	.	4g/	Ster-
.	.	16a/LL	.	.	.	16a\LL	-nens
.	.	16g/JJ	.	.	.	16g\JJ	.
=49	=49	=49	=49	=49	=49	=49	=49
.	.	16f#/LL	.	.	.	16f#/	za-
.	.	16B/J	.	.	.	16B/	-bu-
.	.	8B/J	.	.	.	4B/	-lu(m)
.	.	8r	.	.	.	.	.
.	.	8b/L	.	.	.	8b\	et
.	.	8b/J	.	.	.	8b\	fac
.	.	16b/LL	.	.	.	16b\	ut
.	.	16b/JJ	.	.	.	16b\	o-
=50	=50	=50	=50	=50	=50	=50	=50
.	.	8b\L	.	.	.	8b\	-van-
.	.	8ee\J	.	.	.	8ee\	-tes
.	.	16b/LL	.	.	.	16b\	cae-
.	.	16b/JJ	.	.	.	16b\	-li
.	.	8.ee\L	.	.	.	8.ee\	Ca-
.	.	16gg\L	.	.	.	16gg\	-pi-
!	!	!	!	!	!	!LO:N:vis=8.	!
.	.	16ff#\	.	.	.	16ff#\	-to-
.	.	16ee\JJ	.	.	.	16ee\	-li-
=51	=51	=51	=51	=51	=51	=51	=51
.	.	16dd#X\LL	.	.	.	16dd#X\	-nuS
.	.	16ee\JJ	.	.	.	16ee\	cae-
.	.	8ff#\L	.	.	.	8ff#\	-li
!	!	!	!	!	!	!LO:LB:g=original	!
.	.	8b\J	.	.	.	8b\	scan-
.	.	8ee\L	.	.	.	8ee\	-da-
.	.	8gg\	.	.	.	8gg\	-mus
.	.	16ff#\L	.	.	.	16ff#\LL	ad
.	.	16ee\JJ	.	.	.	16ee\JJ	.
=52	=52	=52	=52	=52	=52	=52	=52
0.r	.	16dd#X\LL	.	0.r	.	16dd#X\LL	De-
.	.	16ee\JJ	.	.	.	16ee\JJ	.
.	.	8ff#\L	.	.	.	8ff#\	-um
.	.	8b\J	.	.	.	8b\	quo
.	.	8ee\L	.	.	.	8ee\	pa-
.	.	8gg\	.	.	.	8gg\	-cis
.	.	16ff#\L	.	.	.	16ff#\LL	tro-
.	.	16ee\JJ	.	.	.	16ee\JJ	.
=53	=53	=53	=53	=53	=53	=53	=53
.	.	16dd#X\LL	.	.	.	16dd#X\LL	-phae-
.	.	16ee\J	.	.	.	16ee\JJ	.
.	.	8ff#\J	.	.	.	8ff#\	-um
.	.	8r	.	.	.	8r	.
!	!	!LO:LB:g=original	!	!	!	!	!
.	.	16ee\LL	.	.	.	16ee\LL	e-
!	!	!LO:SIC:v:s=16cc#\JJ	!	!	!	!	!
.	.	16cc\JJ	.	.	.	16cc#X\JJ	.
.	.	8.dd#X\L	.	.	.	8.dd#X\	-ri-
.	.	16ee\Jk	.	.	.	16ee\	-gi-
=54	=54	=54	=54	=54	=54	=54	=54
.	.	8ee\L	.	.	.	8ee\	-tur
.	.	8r	.	.	.	8r	.
.	.	8b\J	.	.	.	8b\	Scan-
!	!	!	!	!	!	!LO:LB:g=original	!
.	.	8ee\L	.	.	.	8ee\	-da-
.	.	8gg\	.	.	.	8gg\	-mus
.	.	16ff#\L	.	.	.	16ff#\LL	ad
.	.	16ee\JJ	.	.	.	16ee\JJ	.
=55	=55	=55	=55	=55	=55	=55	=55
.	.	16dd#X\LL	.	.	.	16dd#X\LL	De-
.	.	16ee\J	.	.	.	16ee\JJ	.
.	.	8ff#\	.	.	.	8ff#\	-um
.	.	8b\J	.	.	.	8b\	quo
.	.	8ee\L	.	.	.	8ee\	pa-
.	.	8gg\	.	.	.	8gg\	-cis
.	.	16ff#\L	.	.	.	16ff#\LL	tro-
.	.	16ee\JJ	.	.	.	16ee\JJ	.
=56	=56	=56	=56	=56	=56	=56	=56
1.r	.	16dd#X\LL	.	1.r	.	16dd#X\LL	-phae-
.	.	16ee\J	.	.	.	16ee\JJ	.
.	.	8ff#\J	.	.	.	8ff#\	-u(m)
.	.	8r	.	.	.	8r	.
.	.	16ee\LL	.	.	.	16ee\LL	e-
.	.	16cc#X\JJ	.	.	.	16cc#X\JJ	.
.	.	8.dd#Xt\L	.	.	.	8.dd#X\	-ri-
.	.	16ee\Jk	.	.	.	16ee\	-gi-
=57	=57	=57	=57	=57	=57	=57	=57
.	.	4ee\	.	.	.	4ee\	-tur
.	.	8r	.	.	.	8r	.
!	!	!LO:N:vis=2	!	!	!	!LO:N:vis=2	!
!LO:TX:a:i:t=Da Capo	!	!LO:TX:a:i:t=Da Capo	!	!LO:TX:a:i:t=Da Capo	!	!LO:TX:a:it=Da\nCapo	!
.	.	4.r	.	.	.	4.r	.
==	==	==	==	==	==	==	==
*-	*-	*-	*-	*-	*-	*-	*-
!!!system-decoration: <s1>[(g1)]<s4>
!!!RDF**kern: < = below
!!!RDF**dynam: p = "piano"
!!!RDF**dynam: f = "forte"
!!!ENC: Kamil Watkowski
!!!END: 2020-12-06
!!!ENC: Andrzej Kubiczek
!!!END: 2022-03-29
